T: Colleen's Delight
M: 4/4
L: 1/8
K: Gmaj
|B3A GE~E2| with or without roll on B, and |B2BA GE~E2||~a3b (3gag ed| or |~a3b (3gfg ed| or |a^gab =g2ed|
